X: 21102
T: DONALD QUAICH -- Reel
R: reel
B: K\"ohler's Violin Repository, v.2, 1885 p.110 #2
F: http://www.archive.org/details/klersviolinrepos02rugg
Z: 2012 John Chambers <jc:trillian.mit.edu>
M: C|
L: 1/8
K: Am
[|\
v~c2(eA) B/B/B (dG) | ~c2(eA) (aA) (eA) | ~c2(eA) BcdB | (cd)eA B^GA2 :|
v~c2(cg) B/B/B (dG) | ~c2(cg) c/c/c (ge) | (fa)(eg) dgBG | (cd)ec B^GA2 |
vc2(cg) B/B/B (dG) | c2(cg) c/c/c (ge) | (3faf (3geg (3dgd (3BAG | (3cde (3cBA (3BA^G "_Fine."A2 "^D.C."|]

%%sep 2 1 500

